X: 42224
T: Wayesborough
R: reel
M: 4/4
K: Gmajor
GE|:"G" DEGA Bcd2|edgd edBG|"Am" (A4 A)BAG|EA-AB A2 GE|
"G" DEGA Bdef|"C" g2g2 edBG|"D7" DFGA BGAG|1 "G" EG-G2 GzGE:|2 "G" EG-G2 Gzga||
|:"G" b2 b2 a2 a2|"G" gage d2 B2|"Am" a3a abag|ea-ab a-aga|
"G" b2 b2 a2 a2|"C" gage dBAG|"D7" DFGA BGAG|1 "G" EG-G2 Gzga:|2 "G" EG-G2 Gzcd||
|:"C" e4 d4|cdcA BGAG|"Am" EA-AG ABAG|EGAB ABcd|
"C" e2 e2 d2 d2|cdcA BGAG"C"|EFGA "D7" BGAG|1 "G" EG-G2 Gzcd:|2 "G" EG2 FG4||

